X:1
T:Lieder, Op.12
T:Warum willst du And're fragen
T:Clara Schumann
T:11. Warum willst du And're fragen
T:Lieder, Op.12
T:Friedrich Rückert
T:OpenScore (CC0)
T:OpenScore (CC0)
C:Clara Schumann
Z:Friedrich Rückert
Z:OpenScore (CC0)
%%score 1 { ( 2 5 ) | ( 3 4 ) }
L:1/8
Q:1/4=80
M:3/4
K:Ab
V:1 treble nm="Voice"
V:2 treble nm="Piano"
V:5 treble 
V:3 bass 
V:4 bass 
V:1
"^Andante" z2 | z6 | z6 | z6 | z2 z2!p! E E | F3 A d d | d2 c2 c B | A3 A A A | G4"^cresc." c c | %9
w: ||||Wa- rum|willst du And're *|fra- gen, die's nicht|mei- nen treu mit|dir. Glau- be|
 c3 =A B c | c2 d2 d d |[Q:1/4=65]"^ritard." d3!<(! d =d d!<)! | (e4[Q:1/4=80]"^a tempo"{E)} E E | %13
w: nicht als was dir|sa- gen die- se|bei- den Au- gen|hier! Glau- be|
 F3!<(! A d d!<)! | d2 c2 c B | A3 A A A | G4 c c | c3!<(! =A B c!<)! | c2 d2 d d | %19
w: nicht den frem- den|Leu- ten, glaube *|nicht dem eig- nen|Wahn; nicht mein|Thun auch sollst du|deu- ten, son- dern|
"^cresc." d3 d (d{ed} c/) d/ | e4 z2 | z6 | z6 | z6 | z2 z2!p! E E | F3!<(! A d d!<)! | d2 c2 c B | %27
w: sieh' die Au- * gen|an!||||Schweigt die|Lip- pe dei- nen|Fra- gen o- der|
 A3 A A A |"^cresc." G4 c c | c3 =A B c | c2 d2 d d | %31
w: zeugt sie ge- gen|mich? Was auch|mei- ne Lip- pen|sa- gen; sieh' mein|
!f![Q:1/4=75]"^ritard." d!<(! d[Q:1/4=70]"^T" e3 A!<)! | f4 z2 | z6 | z2 z2!p! f f | G3 A d d | %36
w: Aug', ich lie- be|dich!||Was auch|mei- ne Lip- pen|
 d2 c2 c c |[Q:1/4=63]"^ritard."!>(! e3 d c B!>)! | A4 z2 | z6 |[Q:1/4=60]"^T" z6[Q:1/4=57]"^T" | %41
w: sa- gen, sieh' mein|Aug', ich lie- be|dich!|||
 z6 | !fermata!z2 z2 |] %43
w: ||
V:2
!p! ([CE][CE] | [DF]3 [EA][Fd][Gd] | d2 c2 ec | AF E3 E) | E4 (EE | [DF]3!<(! [EA][Fd][Gd]!<)! | %6
 d2 c2) [Ec][EB] | A6 | G4"_cresc." [_Gc][Gc] | [_Gc]3 [G=A][FB][FAc] | ([F=Ac]2 [FBd]2) [Fd][Fd] | %11
 [Fd]3!<(! [Fd][F=d][Fd]!<)! | !arpeggio![EBe]4!mp! EE | [DF]3!<(! [EA][Fd][Gd]!<)! | %14
 d2 c2 [Ec][EB] | A6 | G4 [_Gc][Gc] | [_Gc]3!<(! [G=A][FB][FAc]!<)! | ([F=Ac]2 [FBd]2) [Fd][Fd] | %19
"_cresc." [Fd]3 [Fd][_Gd][Gd] | [_Ge]4 [GA][GA] | [Ff]3 ffe | e2 d2 (.[Ac].[Ec]) | %23
!>(! [Fc]3 (.[Fc].[FB].[FA])!>)! | ([E-A]2 [EG]2)!p! EE | [DF]3!<(! [EA][Fd][Gd]!<)! | %26
 (d2 c2) [Ec][EB] | A3 AAA |"^cresc." G4 [_Gc][Gc] | [_Gc]3 [G=A][FB][FAc] | %30
 ([F=Ac]2 [FBd]2) [Fd][Fd] |!f!"^ritard." [_Gd][Gd] ([GA-e]4 | [FAf]4)!p! [Af][Af] | %33
 ([E=G]3 [EA][_Fd][Fd] | [_Fd]2 [Ec]2) ([=FA=f]2 | [_FG]3 [EA][Fd][Fd] | [_Fd]2 [Ec]2) A2 | %37
"^ritard."!>(! A4 =G2!>)! | A4!p! [CE][CE] | [DF]3 [EA][Fd][Gd] |"^ritard." (d2 c2) x2 | %41
 .[Af].[Ge] .[F_d]2 .[DG]2 | !fermata![CA]4 |] %43
V:3
 z2 | (A,,E,DCB,E, | A,,E,A,E, CA, | F,D, C,2 B,,2) | (B,,2 A,,2) C2 | A,,E,DCB,E, | A,,4 A,G, | %7
 F,6- | C2 x2 =A,2 | D,,D,- =A,(ED[CE]) | ([CE]2 [B,D]2) [B,D][B,D] | %11
"^ritard." [B,D]3 [B,D][A,_C=D][A,CD] | x4 C2 | (A,,E,DCB,E, | A,,E,A,E,) A,G, | F,6- | %16
 C2 x2 =A,2 | x2 =A,(ED[CE]) | ([CE]2 [B,D]2) [B,D][B,D] | [B,D]3 [B,D][B,D][__B,D] | %20
 [A,C]4 [A,C][A,C] | [D,A,D]2"^dim." [DF]2 [CE]2 | E3 B, (.[A,C].[C,A,]) | %23
 [D,A,]3 (.[D,A,].[D,B,].[=D,C]) | (C2 B,2) C2 | A,,E,DCB,E, | A,,4 A,G, | F,6- | C2 x2 =A,2 | %29
 D,,D,- =A,(ED[CE]) | ([CE]2 [B,D]2) [B,D][B,D] | [B,D][__B,D] (([A,C]4 | [D,A,]4)) [DF][DF] | %33
 ([D,B,]3 [C,A,][B,,G,][A,,A,] | [G,,B,]2 [A,,A,]2) [D,A,D]2 | B,3 A,G,A, | B,2 A,2 x2 | A,4 E,2 | %38
 A,,E,A,E, x2 | (A,,E,DCB,E,) | A,,4 (.[=DF].[EG] | .[=B,=D].[CE] .[_B,E]2 .[E,B,]2 | %42
 !fermata![A,,E,]4) |] %43
V:4
 x2 | A,,4 B,2 | A,,4 z2 | z2 E,,4- | [A,,,E,,]4 (CE, | A,,4 B,2 | A,,E,A,E,) x2 | x6 | %8
 (F,=E,G,C) =A,_E, | x2 D,4 | x6 | x6 | !arpeggio![G,B,_D]4 CE, | A,,4 B,2 | A,,4 x2 | x6 | %16
 (F,=E,G,C) =A,_E, | D,,D,- [A,,D,]4 | x6 | x6 | x6 | x6 | B,2 x E,2 x | x6 | E,4 CE, | A,,4 B,2 | %26
 A,,E,A,E, x2 | x6 | (F,=E,G,C) =A,_E, | x2 D,4 | x6 | x6 | x6 | x6 | x6 | D,2 C,2 B,,A,, | %36
 G,,2 A,,2 A,2 | D,2 B,,2 E,2 | A,,4 CE, | A,,4 B,2 | (A,,E,A,C) x2 | x6 | x4 |] %43
V:5
 x2 | x6 | [EA]4 z2 | z2 A,2 F,[G,D] | ([G,D]2 [A,C]2) x2 | x6 | [EA]4 x2 | %7
[I:staff +1] (F,A,[I:staff -1]E!>(!DC=B,)!>)! | x6 | x6 | x6 | x6 | x6 | x6 | [EA]4 x2 | %15
[I:staff +1] (F,A,[I:staff -1]E!>(!DC=B,)!>)! | x6 | x6 | x6 | x6 | x6 | A4 A2- | AF x G2 x | x6 | %24
 x6 | x6 | [EA]4 x2 |[I:staff +1] F,A,[I:staff -1]EDC=B, | x6 | x6 | x6 | x6 | x6 | x6 | x6 | x6 | %36
 x4 A_G | F3 FED | C4 x2 | x6 | [EA]4 .[ca].[Bg] | x6 | x4 |] %43

